!!!OTL: Ecce reges terre
**kern
*staff1
=1-
*clefF4
*k[b-]
*met(c|)
*M2/2
1F
1F
=2
1D
1D
=3
0C
=4
0C
=5
!!linebreak:original
1F
1F
=6
0G
=7
0A
=8
1G
0C
!!linebreak:original
=9
1D
1D
=10
0C
=11
0D
=12
1BB-
1F
=13
0C
=14
0FF
=15
!!linebreak:original
*M3/1
0F
1C
=16
0.F;
=17
0F
1BB-
=18
0F
1BB-
=19
0F
1G
=20
0.D;
!!linebreak:original
=21
0C
1C
=22
1D
1C
1F
=23
0.C
=24
0.FF;
=25
!!pagebreak:original
0C
1C
=26
1D
1C
1F
=27
0.C
=28
0.FF
==
*-
!!title: @{OTL}, @{GTL}, ed. @{ENC}
!!!pag:
!!!GTL: Hymnbook D
!!!EFL: 
!!!YEM: Creative Commons CC/BY/NC/SA 4.0
!!!ENC: Marcin Konik
!!!END: 2015-0m-dd
!!!EED: Marcin Konik
!!!EEV: 
!!!ONB: Encoded in vim by Marcin Konik
!!!CharacterEncoding: utf-8
!!!RDF**kern: l=long note in original notation
!!!RDF**kern: i=editorial accidental
!!muse2ps: z14jc180F
!!!COM: Anonim
!!!CDT: [?]
!!!TXO: Polish
!!!ODT: 
!!!GTL: Hymnbook D
!!!ARL: Opactwo św. Wojciecha, Staniątki 
!!!voices:	1
